X:125
T:Tripping up the Stairs
C:Traditional
M:6/8
R:jig
K:D
FAA GB/B/B | FAd fed | cB/c/c ABc | dfe dBA |
FA/A/A GB/B/B | FAd fed | cB/c/c ABc |[1 dfe d2A :|[2 dfe d3 |
|: dBB fB/B/B | fg/f/f fed | cAA eA/A/A | ef/e/e edc |
dBB fB/B/B | fg/f/f fed | cB/c/c ABc | dfe d3 :|


%%newpage
%%scale .65
%%staffsep 35

